X:1
T:Tielman Susato (c.1510 - c.1570) Arr. Marieh 
T:Pour Quoy
T:Ronde No.1
T:Pour Quoy
T:Ronde No.1
T:Tielman Susato (c.1510 - c.1570) Arr. Marieh
%%score { ( 1 2 ) ( 3 4 ) }
L:1/8
Q:1/4=126
M:none
K:G
V:1 treble-8 nm="Guitare classique"
V:2 treble-8 
V:3 tab stafflines=6 strings=E2,A2,D3,G3,B3,E4 nostems nm="Guitare classique [Tablature]"
V:4 tab stafflines=6 strings=E2,A2,D3,G3,B3,E4 nostems 
V:1
 A2 e2 e3 e | d2 e2 c2 A2 | d3 e dcBA | ^GF G2 A4 :: ABcd e2 e2 | g2 f2 e4 | ABcd e3 e | g2 f2 e4 | %8
 cBcd .e2 !>!e2 | cBcd .e2 !>!e2 | de=fe dcBA | ^GFAG A4 | cBcd .e2 !>!e2 | cBcd .e2 !>!e2 | %14
 de=fe dcBA | ^GFAG A4 :| %16
V:2
 A,4 A,4 | B,4 A,4 | D4 D4 | E,4 A,4 :: A,4 A,4 | A,4 A,4 | A,4 A,4 | A,4 A,4 | A,4 A,4 | A,4 A,4 | %10
 D4 A,4 | E,4 A,4 | A,4 A,4 | A,4 A,4 | D4 A,4 | E,4 A,4 :| %16
V:3
 !3!A,2 !1!E2 !1!E3 !1!E | !2!D2 !1!E2 !2!C2 !3!A,2 | !2!D3 !1!E !2!D !2!C !2!B, !3!A, | %3
 !3!^G, !4!F, !3!G,2 !3!A,4 :: !3!A, !2!B, !2!C !2!D !1!E2 !1!E2 | !1!G2 !1!F2 !1!E4 | %6
 !3!A, !2!B, !2!C !2!D !1!E3 !1!E | !1!G2 !1!F2 !1!E4 | !2!C !2!B, !2!C !2!D !1!E2 !1!E2 | %9
 !2!C !2!B, !2!C !2!D !1!E2 !1!E2 | !2!D !1!E !1!=F !1!E !2!D !2!C !2!B, !3!A, | %11
 !3!^G, !4!F, !3!A, !3!G, !3!A,4 | !2!C !2!B, !2!C !2!D !1!E2 !1!E2 | %13
 !2!C !2!B, !2!C !2!D !1!E2 !1!E2 | !2!D !1!E !1!=F !1!E !2!D !2!C !2!B, !3!A, | %15
 !3!^G, !4!F, !3!A, !3!G, !3!A,4 :| %16
V:4
 !5!A,,4 !5!A,,4 | !5!B,,4 !5!A,,4 | !4!D,4 !4!D,4 | !6!E,,4 !5!A,,4 :: !5!A,,4 !5!A,,4 | %5
 !5!A,,4 !5!A,,4 | !5!A,,4 !5!A,,4 | !5!A,,4 !5!A,,4 | !5!A,,4 !5!A,,4 | !5!A,,4 !5!A,,4 | %10
 !4!D,4 !5!A,,4 | !6!E,,4 !5!A,,4 | !5!A,,4 !5!A,,4 | !5!A,,4 !5!A,,4 | !4!D,4 !5!A,,4 | %15
 !6!E,,4 !5!A,,4 :| %16

